!!!!SEGMENT: pl-kk--kk-i-2--023_anonim--oramus-domine-conditor-inclite.krn
!!!cenid: 16xx:1641
!!!COM: Anonim
!!!COM-rismID: pe30004985
!!!CDT:
!!!CNT:
!!!OTL: Oramus Domine conditor inclite
!!!PDT:
!!!AGN: Sacred
!!!SMS-siglum: PL-Kk
!!!SMS-shelfmark: Kk.I.2
!!!SMS-shelfwork: 023 W
!!!NIFC-rismSourceID: 300258016
!!!NIFC-rismChildID: 300258039
!!!NIFC-islandoraID: pl-kk:750
!!!URL-pdf-islandora: https://repozytorium.nifc.pl/islandora/object/pl-kk%3A750/datastream/PDF/view
!!!URL-scan: https://polish.musicsources.pl/pl/lokalizacje/galeria/rekopisy/5828 @EN{Scan on Polish Music Sources Website} @PL{Skany w portalu Dziedzictwo Muzyki Polskiej w otwartym dostępie}
!!!IIIF: https://repozytorium.nifc.pl/islandora/object/pl-kk%3A750/datastream/IIIF/view
!!!ONB-nifc: skany: C: 0051 (lewa strona); Quinta vox (Q): 0051 (prawa strona); A: 0153; T: 0255; B: 0354;
!!!AIN: 1 alto 1 bass 1 soprn 1 tenor 1 vox
!!!key: G:mix-hypo
**kern	**text	**kern	**text	**kern	**text	**kern	**text	**kern	**text
*part5	*part5	*part4	*part4	*part3	*part3	*part2	*part2	*part1	*part1
*staff5	*staff5	*staff4	*staff4	*staff3	*staff3	*staff2	*staff2	*staff1	*staff1
*I"BASVS	*	*I"TENOR	*	*I"ALTVS	*	*I"[QUINTA VOX]	*	*I"DISCANTVS	*
*I'B	*	*I'T	*	*I'A	*	*I'V	*	*I'S	*
*Ibass	*	*Itenor	*	*Ialto	*	*Ivox	*	*Isoprn	*
*ICvox	*	*ICvox	*	*ICvox	*	*ICvox	*	*ICvox	*
*clefF4	*	*clefC4	*	*clefC4	*	*clefC3	*	*clefC2	*
*k[]	*	*k[]	*	*k[]	*	*k[]	*	*k[]	*
*C:	*	*C:	*	*C:	*	*C:	*	*C:	*
*M2/1	*	*M2/1	*	*M2/1	*	*M2/1	*	*M2/1	*
*met(C|)	*	*met(C|)	*	*met(C|)	*	*met(C|)	*	*met(C|)	*
=1-	=1-	=1-	=1-	=1-	=1-	=1-	=1-	=1-	=1-
*xywh-#354:1224,693,6492,1148	*	*xywh-#255:7802,2335,6258,982	*	*xywh-#153:7752,596,6562,988	*	*xywh-#51:7793,589,6540,1077	*	*xywh-#51:1321,636,6450,1028	*
2r	.	1G	O-	1B	O-	1d	O-	1g	O-
!LO:TX:t=P:problem=kreska pseudotaktowa	!	!	!	!	!	!	!	!	!
2G\	O-	.	.	.	.	.	.	.	.
2C/	-ra-	1E	-ra-	2c\	-ra-	2c/	-ra-	2g\	-ra-
!	!	!	!	!LO:TX:t=P:problem=kreska pseudotaktowa	!	!LO:TX:t=P:problem=kreska pseudotaktowa	!	!LO:TX:t=P:problem=kreska pseudotaktowa	!
2E\	-mus	.	.	2G/	-mus	2B/	-mus	2g\	-mus
=2-	=2-	=2-	=2-	=2-	=2-	=2-	=2-	=2-	=2-
*	*	*lig	*	*	*	*	*	*lig	*
2.D/	Do-	1F	-mus	2.A/	Do-	1d	O-	1f	Do-
!LO:TX:t=P:problem=kreska pseudotaktowa	!	!	!	!	!	!	!	!	!
4D/	-mi-	.	.	4B\	-mi-	.	.	.	.
!	!	!LO:TX:t=P:problem=kreska pseudotaktowa	!	!	!	!	!	!	!
2C/	-ne	1E,<	.	2c\	-ne	2e\	-ra-	1g	.
!	!	!	!	!LO:TX:t=P:problem=kreska pseudotaktowa	!	!LO:TX:t=P:problem=kreska pseudotaktowa	!	!	!
1G\	con-	.	.	2G/	O-	2c/	-mus	.	.
*	*	*Xlig	*	*	*	*	*	*Xlig	*
=3-	=3-	=3-	=3-	=3-	=3-	=3-	=3-	=3-	=3-
.	.	1D	Do-	2A/	-ra-	2.d\	Do-	1d	-mi-
!LO:TX:t=P:problem=kreska pseudotaktowa	!	!	!	!	!	!	!	!	!
2F#X\	-di-	.	.	2A/	-mus	.	.	.	.
.	.	.	.	.	.	4c/	-mi-	.	.
2G\	-tor	1G	-mi-	2G/	Do-	2B/	-ne	2d/	-ne
!	!	!	!	!LO:TX:t=P:problem=kreska pseudotaktowa	!	!LO:TX:t=P:problem=wszystkie custos użyte jako łamanie pięciolinii.	!	!	!
2.C/	in	.	.	2G/	-mi-	2.c/	Do-	4e/	O-
!	!	!	!	!	!	!	!	!LO:TX:t=P:problem=kreska pseudotaktowa	!
.	.	.	.	.	.	.	.	4d/	.
=4-	=4-	=4-	=4-	=4-	=4-	=4-	=4-	=4-	=4-
!	!	!LO:TX:t=P:problem=kreska pseudotaktowa	!	!	!	!	!	!	!
.	.	1G,<	-ne	1c,<	-ne	.	.	4e/	.
4D/	.	.	.	.	.	8B/L	.	4f\	.
.	.	.	.	.	.	8A/J	.	.	.
4E\	.	.	.	.	.	4G/	.	1g	.
!LO:TX:t=P:problem=kreska pseudotaktowa	!	!	!	!	!	!LO:TX:t=P:problem=kreska pseudotaktowa	!	!	!
4Fny\	.	.	.	.	.	4A/	-mi-	.	.
*	*	*lig	*	*	*	*	*	*	*
2G\	.	1G	Con-	2B\	O-	2B,</	-ne	.	.
!	!	!	!	!LO:TX:t=P:problem=kreska pseudotaktowa	!	!	!	!LO:TX:t=P:problem=kreska pseudotaktowa	!
2E\	cly-	.	.	2E/	-ra-	4B/	O-	2g\	-ra-
.	.	.	.	.	.	2c/	-ra-	.	.
=5-	=5-	=5-	=5-	=5-	=5-	=5-	=5-	=5-	=5-
2F,\	-te	1A	.	2A/	-mus	.	.	4f\	-mus
.	.	.	.	.	.	4A/	-mus	2f\	Do-
!LO:TX:t=P:problem=kreska pseudotaktowa	!	!	!	!	!	!	!	!	!
2D/	O-	.	.	4D/	Do-	4A/	o-	.	.
!	!	!	!	!LO:TX:t=P:problem=kreska pseudotaktowa	!	!LO:TX:t=P:problem=kreska pseudotaktowa	!	!LO:TX:t=P:problem=kreska pseudotaktowa	!
.	.	.	.	4A/	-mi-	4d\	-ra-	4f\	-mi-
*	*	*Xlig	*	*	*	*	*	*	*
!	!	!	!	!	!	!	!	!LO:TX:t=P:problem=kreska pseudotaktowa	!
2E\	-ra-	1G	-di-	2E/	-ne	2B/	-mus	1e	-ne
2C/	-mus	.	.	4E/	con-	2c/	Do-	.	.
.	.	.	.	4E/	-di-	.	.	.	.
=6-	=6-	=6-	=6-	=6-	=6-	=6-	=6-	=6-	=6-
*	*	*lig	*	*	*	*	*	*	*
!	!	!	!	!LO:TX:t=P:problem=kreska pseudotaktowa	!	!	!	!	!
2D/	Do-	1F	-tor	1A	-tor	2.A/	.	2f\	Con-
!LO:TX:t=P:problem=kreska pseudotaktowa	!	!	!	!	!	!	!	!	!
2F\	-mi-	.	.	.	.	.	.	2a\	-di-
!	!	!	!	!	!	!LO:TX:t=P:problem=kreska pseudotaktowa	!	!	!
.	.	.	.	.	.	4B/	-mi-	.	.
2C/	-ne	1E	.	2G/	in	2c/	-ne	2e/	-tor
!	!	!	!	!	!	!	!	!LO:TX:t=P:problem=kreska pseudotaktowa	!
2C/	con-	.	.	1G/	cly-	2e\	con-	2e/	in
*	*	*Xlig	*	*	*	*	*	*	*
=7-	=7-	=7-	=7-	=7-	=7-	=7-	=7-	=7-	=7-
!LO:TX:t=P:problem=kreska pseudotaktowa	!	!	!	!	!	!	!	!	!
*	*	*lig	*	*	*	*	*	*	*
1D	-di-	1D	.	.	.	1d	-di-	1a	cly-
!	!	!	!	!LO:TX:b:t=P:problem=# below	!	!	!	!	!
.	.	.	.	2F#X/	.	.	.	.	.
*	*	*	*	*custos:A	*	*	*	*	*
!	!	!	!	!LO:TX:t=P:problem=kreska pseudotaktowa	!	!	!	!	!
!	!	!LO:TX:t=P:problem=kreska pseudotaktowa	!	!	!	!	!	!	!
2GG/	-tor	1G,<	.	1G	-te	2d\	-tor	2b,<\	-te
*	*	*	*	*	*	*	*	*	*ij
*	*	*	*	*	*	*custos:c	*	*	*
!LO:TX:t=P:problem=kreska pseudotaktowa	!	!	!	!	!	!LO:TX:t=P:problem=kreska pseudotaktowa	!	!LO:TX:t=P:problem=kreska pseudotaktowa	!
2C/	in	.	.	.	.	2e\	in	2g\	Con-
*	*	*Xlig	*	*	*	*	*	*	*
!	!	!	!	!LO:LB:g=original	!	!LO:LB:g=original	!	!	!
=8-	=8-	=8-	=8-	=8-	=8-	=8-	=8-	=8-	=8-
*	*	*	*	*xywh-#153:7773,1454,6473,933	*	*xywh-#51:7827,1534,6387,924	*	*	*
*custos:D	*	*	*	*	*	*	*	*	*
2F\	cly-	1F	in	2r	.	2c/	cly-	2a\	-di-
!LO:LB:g=original	!	!	!	!	!	!	!	!	!
*xywh-#354:1944,1669,5793,899	*	*	*	*	*	*	*	*	*
4D/	-te	.	.	4r	.	4d\	-te	4a\	-tor
!LO:TX:t=P:problem=kreska pseudotaktowa	!	!	!	!LO:TX:t=P:problem=kreska pseudotaktowa	!	!LO:TX:t=P:problem=kreska pseudotaktowa	!	!LO:TX:t=P:problem=kreska pseudotaktowa	!
4D/	con-	.	.	4A/	con-	4d\	con-	4f\	in
2C/	-di-	1G	cly-	2c\	-di-	2e\	-di-	4e/	cly-
.	.	.	.	.	.	.	.	2g\	-te
*	*	*	*	*	*	*	*	*	*Xij
4C/	-tor	.	.	4c\	-tor	4e\	-tor	.	.
*	*	*	*	*	*	*	*	*custos:g	*
!	!	!	!	!	!	!	!	!LO:TX:t=P:problem=kreska pseudotaktowa	!
!	!	!	!	!LO:TX:t=P:problem=kreska pseudotaktowa	!	!LO:TX:t=P:problem=kreska pseudotaktowa	!	!	!
4BB/	in	.	.	4d\	in	4d\	in	4g\	con-
!	!	!	!	!	!	!	!	!LO:LB:g=original	!
=9-	=9-	=9-	=9-	=9-	=9-	=9-	=9-	=9-	=9-
*	*	*	*	*	*	*	*	*xywh-#51:1557,1490,6214,966	*
!	!	!LO:TX:t=P:problem=kreska pseudotaktowa	!	!	!	!	!	!	!
2C/	cly-	1G,<	-te.	2c\	cly-	2e\	cly-	2g\	-di-
!LO:TX:t=P:problem=kreska pseudotaktowa	!	!	!	!	!	!	!	!	!
2GG/	-te	.	.	2B\	.	4d\	-te	4g\	-tor
!	!	!	!	!	!	!LO:TX:t=P:problem=kreska pseudotaktowa	!	!LO:TX:t=P:problem=kreska pseudotaktowa	!
.	.	.	.	.	.	4B/	in-	4d/	in
2r	.	1F	De-	2A/	-te	2c/	-cly-	2f\	cly-
!LO:TX:t=P:problem=kreska pseudotaktowa	!	!	!	!	!	!	!	!	!
2D/	De-	.	.	4D/	con-	1A/	-te	1f\	-te
!	!	!	!	!LO:TX:t=P:problem=kreska pseudotaktowa	!	!	!	!	!
.	.	.	.	4E/	.	.	.	.	.
=10-	=10-	=10-	=10-	=10-	=10-	=10-	=10-	=10-	=10-
*	*	*lig	*	*	*	*	*	*	*
2D/	-vo-	1A	-vo-	4Fny/	.	.	.	.	.
.	.	.	.	4G/	.	.	.	.	.
*	*	*	*	*	*	*	*	*	*ij
!LO:TX:t=P:problem=kreska pseudotaktowa	!	!	!	!LO:TX:t=P:problem=kreska pseudotaktowa	!	!	!	!	!
2AA/	-tos	.	.	2A/	.	1c	con-	2.e/	con-
2C/	fa-	1G	.	4E/	-di-	.	.	.	.
.	.	.	.	2G/	-tor	.	.	4e/	-di-
2E\	.	.	.	.	.	4B/	-di-	4e/	-tor
!	!	!	!	!LO:TX:t=P:problem=kreska pseudotaktowa	!	!LO:TX:t=P:problem=kreska pseudotaktowa	!	!LO:TX:t=P:problem=kreska pseudotaktowa	!
.	.	.	.	4G/	in	4c/	-tor	4g\	in
*	*	*Xlig	*	*	*	*	*	*	*
=11-	=11-	=11-	=11-	=11-	=11-	=11-	=11-	=11-	=11-
*	*	*lig	*	*	*	*	*	*	*
2.D/	.	1A	-tos	4F#X/	cly-	2d\	in	1d	cly-
.	.	.	.	2G/	.	.	.	.	.
.	.	.	.	.	.	2A/	cly-	.	.
!	!	!	!	!LO:TX:t=P:problem=kreska pseudotaktowa	!	!	!	!	!
4D/	-mu-	.	.	4F#X/	.	.	.	.	.
!	!	!	!	!	!	!	!	!LO:TX:t=P:problem=kreska pseudotaktowa	!
2GG/	-los	1B	.	2G/	-te	2G,</	-te	1d	-te
*	*	*	*	*	*	*	*	*	*Xij
!LO:TX:t=P:problem=kreska pseudotaktowa	!	!	!	!	!	!	!	!	!
2G\	de-	.	.	1G/	De-	1B/	De-	.	.
*	*	*Xlig	*	*	*	*	*	*	*
=12-	=12-	=12-	=12-	=12-	=12-	=12-	=12-	=12-	=12-
*	*	*lig	*	*	*	*	*	*	*
2E\	-vo-	1c	.	.	.	.	.	1rf	.
!	!	!	!	!LO:TX:t=P:problem=kreska pseudotaktowa	!	!LO:TX:t=P:problem=kreska pseudotaktowa	!	!	!
2F\	-tos	.	.	2A/	-vo-	2A/	-vo-	.	.
*	*	*custos:A	*	*	*	*	*	*	*
!	!	!LO:TX:t=P:problem=kreska pseudotaktowa	!	!	!	!	!	!	!
2G\	fa-	1B	.	2B\	-tos	2A/	-tos	2r	.
2BB/	.	.	.	2G/	de-	1G/	fa-	1d/	De-
*	*	*Xlig	*	*	*	*	*	*	*
!	!	!LO:LB:g=original	!	!	!	!	!	!	!
=13-	=13-	=13-	=13-	=13-	=13-	=13-	=13-	=13-	=13-
*	*	*xywh-#255:7815,3130,6085,940	*	*	*	*	*	*	*
!	!	!	!	!LO:TX:t=P:problem=kreska pseudotaktowa	!	!	!	!	!
2.D/	.	1A	fa-	1A	-vo-	.	.	.	.
!	!	!	!	!	!	!	!	!LO:TX:t=P:problem=kreska pseudotaktowa	!
.	.	.	.	.	.	2F#X/	-mu-	2d/	-vo-
4D/	-mu-	.	.	.	.	.	.	.	.
!LO:TX:t=P:problem=kreska pseudotaktowa	!	!	!	!	!	!LO:TX:t=P:problem=kreska pseudotaktowa	!	!	!
1GG	-los	1G	-mu-	2B\	-tos	1G	-los	1d	-tos
.	.	.	.	2B\	de-	.	.	.	.
=14-	=14-	=14-	=14-	=14-	=14-	=14-	=14-	=14-	=14-
!	!	!LO:TX:t=P:problem=kreska pseudotaktowa	!	!	!	!	!	!	!
2r	.	1A	-los	2c\	-vo-	00r	.	2r	.
2.D/	fa-	.	.	4A/	-tos	.	.	1f	fa-
!	!	!	!	!LO:TX:t=P:problem=kreska pseudotaktowa	!	!	!	!	!
.	.	.	.	4A/	de-	.	.	.	.
.	.	1A	re-	4Fny/	-vo-	.	.	.	.
*	*	*	*	*custos:A	*	*	*	*	*
4E\	.	.	.	4G/	-tos	.	.	.	.
!	!	!	!	!LO:LB:g=original	!	!	!	!LO:TX:t=P:problem=kreska pseudotaktowa	!
*	*	*	*	*xywh-#153:7849,2207,6120,975	*	*	*	*	*
4F\	.	.	.	4A/	fa-	.	.	2f\	-mu-
!LO:TX:t=P:problem=kreska pseudotaktowa	!	!	!	!LO:TX:t=P:problem=kreska pseudotaktowa	!	!	!	!	!
4D/	.	.	.	4F/	-mu-	.	.	.	.
=15-	=15-	=15-	=15-	=15-	=15-	=15-	=15-	=15-	=15-
2E\	.	1G	-spi-	2G/	-los	.	.	1e	-los
!	!	!	!	!LO:TX:t=P:problem=kreska pseudotaktowa	!	!	!	!	!
2C/	.	.	.	2c\	de-	.	.	.	.
*	*	*lig	*	*	*	*	*	*	*
2D/	.	1F	-ce	2A/	-vo-	.	.	1f	re-
*custos:C	*	*	*	*	*	*	*	*	*
!LO:TX:t=P:problem=kreska pseudotaktowa	!	!	!	!	!	!	!	!	!
2F\	-mu-	.	.	4A/	-tos	.	.	.	.
!	!	!	!	!LO:TX:t=P:problem=kreska pseudotaktowa	!	!	!	!	!
.	.	.	.	4A/	fa-	.	.	.	.
!LO:LB:g=original	!	!	!	!	!	!	!	!	!
=16-	=16-	=16-	=16-	=16-	=16-	=16-	=16-	=16-	=16-
*xywh-#354:1812,2424,5918,955	*	*	*	*	*	*	*	*	*
!	!	!LO:TX:t=P:problem=kreska pseudotaktowa	!	!	!	!	!	!	!
1C	-los	1E,<	.	1G	-mu-	2r	.	1g	-spi-
!	!	!	!	!	!	!LO:TX:t=P:problem=kreska pseudotaktowa	!	!	!
.	.	.	.	.	.	2c/	De-	.	.
*	*	*Xlig	*	*	*	*	*	*	*
!	!	!	!	!LO:TX:t=P:problem=kreska pseudotaktowa	!	!	!	!LO:TX:t=P:problem=kreska pseudotaktowa	!
2F\	de-	1F	pro-	1F	-los	4A/	-vo-	1a	-ce
.	.	.	.	.	.	4B/	-tos	.	.
!LO:TX:t=P:problem=kreska pseudotaktowa	!	!	!	!	!	!	!	!	!
2D/	-vo-	.	.	.	.	4c/	fa-	.	.
.	.	.	.	.	.	4A/	-mu-	.	.
=17-	=17-	=17-	=17-	=17-	=17-	=17-	=17-	=17-	=17-
*	*	*lig	*	*	*	*	*	*	*
4E\	-tos	1G	.	2rG	.	2G/	-los	1r	.
4F\	.	.	.	.	.	.	.	.	.
!	!	!	!	!LO:TX:t=P:problem=kreska pseudotaktowa	!	!LO:TX:t=P:problem=kreska pseudotaktowa	!	!	!
4G\	.	.	.	2G/	pro-	2B/	re-	.	.
4E\	.	.	.	.	.	.	.	.	.
2F\	fa-	1F	.	2A/	-te-	2A/	-spi-	2r	.
*	*	*	*	*	*	*custos:G	*	*	*
!LO:TX:t=P:problem=kreska pseudotaktowa	!	!	!	!	!	!LO:TX:t=P:problem=kreska pseudotaktowa	!	!LO:TX:t=P:problem=kreska pseudotaktowa	!
2D/	-mu-	.	.	2F/	-ge	2d\	-ce	2d/	pro-
*	*	*Xlig	*	*	*	*	*	*	*
!	!	!	!	!	!	!LO:LB:g=original	!	!	!
=18-	=18-	=18-	=18-	=18-	=18-	=18-	=18-	=18-	=18-
*	*	*	*	*	*	*xywh-#51:7862,2250,6422,959	*	*	*
!	!	!	!	!LO:TX:t=P:problem=kreska pseudotaktowa	!	!	!	!	!
4C/	-los	1G	-te-	1E	nos	2G/	pro-	4e/	-te-
4D,</	.	.	.	.	.	.	.	4f\	.
!	!	!	!	!	!	!LO:TX:t=P:problem=kreska pseudotaktowa	!	!	!
4E\	re-	.	.	.	.	2c/	-te-	4g\	.
!	!	!	!	!	!	!	!	!LO:TX:t=P:problem=kreska pseudotaktowa	!
4C/	-spi-	.	.	.	.	.	.	4e/	-ge
*	*	*	*	*	*	*	*	*custos:g	*
!	!	!LO:TX:t=P:problem=kreska pseudotaktowa	!	!	!	!	!	!	!
4GG/	-ce	1G,<	-ge	2rG	.	8d\L	-ge	2d/	nos
.	.	.	.	.	.	8c\	.	.	.
4G\	pro-	.	.	.	.	8B\	.	.	.
.	.	.	.	.	.	8A\J	.	.	.
!	!	!	!	!	!	!	!	!LO:LB:g=original	!
*	*	*	*	*	*	*	*	*xywh-#51:1418,2345,6401,917	*
8G\L	-te-	.	.	4rF	.	4B,</	.	4r	.
8F\	.	.	.	.	.	.	.	.	.
!	!	!	!	!LO:TX:t=P:problem=kreska pseudotaktowa	!	!	!	!	!
8E\	.	.	.	4G/	re-	8B/L	nos	4.g\	pro-
!LO:TX:t=P:problem=kreska pseudotaktowa	!	!	!	!	!	!LO:TX:t=P:problem=kreska pseudotaktowa	!	!	!
8D\J	.	.	.	.	.	8B/J	.	.	.
=19-	=19-	=19-	=19-	=19-	=19-	=19-	=19-	=19-	=19-
4C/	.	1G	ne	4E/	-spi-	4c/	res-	.	.
.	.	.	.	.	.	.	.	8f\L	.
4BB/	.	.	.	4D/	-ce	4d\	-pi-	8e\	te-
.	.	.	.	.	.	.	.	8d\J	.
!LO:TX:t=P:problem=kreska pseudotaktowa	!	!	!	!	!	!LO:TX:t=P:problem=kreska pseudotaktowa	!	!LO:TX:t=P:problem=kreska pseudotaktowa	!
2C/	-ge	.	.	8E/L	nos	2c/	-ce	2e/	-ge
.	.	.	.	8D/	.	.	.	.	.
.	.	.	.	8E/	.	.	.	.	.
!	!	!	!	!LO:TX:t=P:problem=kreska pseudotaktowa	!	!	!	!	!
.	.	.	.	8F/J	.	.	.	.	.
2GG/	nos	1G	nos	4G,</	.	2B,</	nos	2d/	nos
.	.	.	.	4G/	pro-	.	.	.	.
!LO:TX:t=P:problem=kreska pseudotaktowa	!	!	!	!	!	!LO:TX:t=P:problem=kreska pseudotaktowa	!	!	!
2rC	.	.	.	8G/L	-te-	2B/	pro-	4r	.
.	.	.	.	8F/	.	.	.	.	.
!	!	!	!	!	!	!	!	!LO:TX:t=P:problem=kreska pseudotaktowa	!
.	.	.	.	8E/	.	.	.	4g\	pro-
!	!	!	!	!LO:TX:t=P:problem=kreska pseudotaktowa	!	!	!	!	!
.	.	.	.	8D/J	.	.	.	.	.
=20-	=20-	=20-	=20-	=20-	=20-	=20-	=20-	=20-	=20-
*	*	*lig	*	*	*	*	*	*	*
2r	.	1c	.	2C/	.	4.c/	-te-	8g\L	.
.	.	.	.	.	.	.	.	8f\	.
.	.	.	.	.	.	.	.	8e\	.
.	.	.	.	.	.	8d\	.	8d\J	.
4r	.	.	.	4C/	ge	4e\	.	4c/	.
!LO:TX:t=P:problem=kreska pseudotaktowa	!	!	!	!LO:TX:t=P:problem=kreska pseudotaktowa	!	!LO:TX:t=P:problem=kreska pseudotaktowa	!	!LO:TX:t=P:problem=kreska pseudotaktowa	!
4AA/	re-	.	.	4E/	re-	4c/	-ge	4a\	-te-
!	!	!LO:TX:t=P:problem=kreska pseudotaktowa	!	!	!	!	!	!	!
2BB/	-spi-	1B	.	2D/	-spi-	2.d\	nos	2f#X\	-ge
4GG/	-ce	.	.	4D/	-ce	.	.	1g\	nos
*	*	*	*	*custos:E	*	*	*	*	*
!	!	!	!	!LO:TX:t=P:problem=kreska pseudotaktowa	!	!LO:TX:t=P:problem=kreska pseudotaktowa	!	!	!
4GG/	pro-	.	.	4D/	pro-	4B/	re-	.	.
!	!	!	!	!LO:LB:g=original	!	!	!	!	!
*	*	*Xlig	*	*	*	*	*	*	*
=21-	=21-	=21-	=21-	=21-	=21-	=21-	=21-	=21-	=21-
*	*	*	*	*xywh-#153:7946,3023,6106,899	*	*	*	*	*
*	*	*lig	*	*	*	*	*	*	*
4.C/	-te-	1c	li-	4E/	-te-	4.e\	-spi-	.	.
.	.	.	.	4G/	-ge	.	.	.	.
8BB/	.	.	.	.	.	8d\	.	.	.
!	!	!	!	!LO:TX:t=P:problem=kreska pseudotaktowa	!	!	!	!	!
4AA/	.	.	.	2A/	nos	4c/	.	4r	.
!LO:TX:t=P:problem=kreska pseudotaktowa	!	!	!	!	!	!LO:TX:t=P:problem=kreska pseudotaktowa	!	!LO:TX:t=P:problem=kreska pseudotaktowa	!
4AA/	-ge	.	.	.	.	4c/	-ce	4a\	ne
*custos:D	*	*	*	*	*	*	*	*	*
!LO:TX:t=P:problem=kreska pseudotaktowa	!	!	!	!	!	!	!	!	!
1GG	nos	1d	.	4.B\	pro-	2.B/	nos	2d/	nos
.	.	.	.	8c\	-te-	.	.	.	.
!	!	!	!	!	!	!	!	!LO:TX:t=P:problem=kreska pseudotaktowa	!
.	.	.	.	4d\	-ge	.	.	2g\	li-
!	!	!	!	!LO:TX:t=P:problem=kreska pseudotaktowa	!	!LO:TX:t=P:problem=kreska pseudotaktowa	!	!	!
.	.	.	.	4B\	.	4G/	pro-	.	.
*	*	*Xlig	*	*	*	*	*	*	*
!LO:LB:g=original	!	!	!	!	!	!	!	!	!
=22-	=22-	=22-	=22-	=22-	=22-	=22-	=22-	=22-	=22-
*xywh-#354:1743,3206,6042,948	*	*	*	*	*	*	*	*	*
!	!	!LO:TX:t=P:problem=kreska pseudotaktowa	!	!	!	!	!	!	!
4r	.	1d,<	-vor	2A/	nos	2A/	-te-	2f#X\	-vor
8D/	ne	.	.	.	.	.	.	.	.
8C/	nos	.	.	.	.	.	.	.	.
!	!	!	!	!	!	!LO:TX:t=P:problem=kreska pseudotaktowa	!	!	!
4BB/	li-	.	.	4r	.	2d\	-ge	4r	.
!LO:TX:t=P:problem=kreska pseudotaktowa	!	!	!	!	!	!	!	!	!
4BB/	-vor	.	.	8B\L	ne	.	.	8g\L	li-
!	!	!	!	!LO:TX:t=P:problem=kreska pseudotaktowa	!	!	!	!LO:TX:t=P:problem=kreska pseudotaktowa	!
.	.	.	.	8A\J	nos	.	.	8f#\J	-vor
*	*	*lig	*	*	*	*	*	*	*
4r	.	1c	e-	4G/	li-	4e\	nos	4e/	e-
8C/	li-	.	.	4G/	-vor	8e\L	ne	4e/	-dax
8BB/	-vor	.	.	.	.	8d\J	nos	.	.
4AA/	e-	.	.	4r	.	4c/	li-	4r	.
!LO:TX:t=P:problem=kreska pseudotaktowa	!	!	!	!	!	!LO:TX:t=P:problem=kreska pseudotaktowa	!	!	!
4AA/	-dax	.	.	8c\L	li-	4A/	-vor	8a\L	ne
!	!	!	!	!LO:TX:t=P:problem=kreska pseudotaktowa	!	!	!	!LO:TX:t=P:problem=kreska pseudotaktowa	!
.	.	.	.	8B\J	-vor	.	.	8g\J	nos
=23-	=23-	=23-	=23-	=23-	=23-	=23-	=23-	=23-	=23-
4r	.	1d	.	2d\	e-	4r	.	2f#X\	li-
8BB/	li-	.	.	.	.	8d\L	li-	.	.
8AA/	-vor	.	.	.	.	8c\J	-vor	.	.
!LO:TX:t=P:problem=kreska pseudotaktowa	!	!	!	!LO:TX:t=P:problem=kreska pseudotaktowa	!	!LO:TX:t=P:problem=kreska pseudotaktowa	!	!LO:TX:t=P:problem=kreska pseudotaktowa	!
2GG/	e-	.	.	2d\	-dax	2B/	e-	2g\	-vor
*	*	*Xlig	*	*	*	*	*	*	*
*	*	*	*	*	*	*custos:a	*	*	*
!	!	!LO:TX:t=P:problem=kreska pseudotaktowa	!	!	!	!	!	!	!
2D/	-dax	1d,<	-dax	2r	.	2A/	-dax	4r	.
.	.	.	.	.	.	.	.	8a\L	li-
*	*	*	*	*	*	*	*	*custos:f	*
.	.	.	.	.	.	.	.	8g\J	-vor
!	!	!	!	!	!	!LO:LB:g=original	!	!LO:LB:g=original	!
*	*	*	*	*	*	*xywh-#51:7897,3112,6415,917	*	*xywh-#51:1467,3152,6262,868	*
2D/	li-	.	.	4r	.	2A/	ne	4f#X\	e-
!	!	!	!	!	!	!	!	!LO:TX:t=P:problem=kreska pseudotaktowa	!
.	.	.	.	8d\L	ne	.	.	4f#X\	-dax
!	!	!	!	!LO:TX:t=P:problem=kreska pseudotaktowa	!	!	!	!	!
.	.	.	.	8c\J	nos	.	.	.	.
=24-	=24-	=24-	=24-	=24-	=24-	=24-	=24-	=24-	=24-
2G\	-vor	1d	Dae-	2B\	li-	2B/	nos	2r	.
!LO:TX:t=P:problem=kreska pseudotaktowa	!	!	!	!	!	!LO:TX:t=P:problem=kreska pseudotaktowa	!	!	!
2G\	e-	.	.	4B\	-vor	2B/	li-	4r	.
.	.	.	.	8B\L	li-	.	.	8g\L	ne
!	!	!	!	!LO:TX:t=P:problem=kreska pseudotaktowa	!	!	!	!LO:TX:t=P:problem=kreska pseudotaktowa	!
.	.	.	.	8A\J	-vor	.	.	8fny\J	nos
*	*	*lig	*	*	*	*	*	*	*
2C/	-dax	1e	.	2G/	e-	2c/	-vor	2e/	li-
2C/	Dae-	.	.	4G/	-dax	2c/	e-	4e/	-vor
!	!	!	!	!	!	!	!	!LO:TX:t=P:problem=kreska pseudotaktowa	!
.	.	.	.	2c\	Dae-	.	.	4g\	e-
=25-	=25-	=25-	=25-	=25-	=25-	=25-	=25-	=25-	=25-
!	!	!	!	!	!	!LO:TX:t=P:problem=kreska pseudotaktowa	!	!	!
1G	-mo-	1d	.	.	.	1d	-dax	2g\	-dax
.	.	.	.	8B\L	.	.	.	.	.
.	.	.	.	8A\J	.	.	.	.	.
!	!	!	!	!LO:TX:t=P:problem=kreska pseudotaktowa	!	!	!	!LO:TX:t=P:problem=kreska pseudotaktowa	!
.	.	.	.	2B\	.	.	.	2g\	Dae-
*	*	*Xlig	*	*	*	*	*	*	*
!LO:TX:t=P:problem=kreska pseudotaktowa	!	!	!	!	!	!	!	!	!
*	*	*lig	*	*	*	*	*	*	*
*	*	*	*	*custos:G	*	*	*	*	*
1C	-nis	1c	-mo-	2c\	-mo-	4e\	Dae-	2.g\	-mi-
.	.	.	.	.	.	2e\	-mo-	.	.
!	!	!	!	!LO:LB:g=original	!	!	!	!	!
*	*	*	*	*xywh-#153:7890,3798,6320,1272	*	*	*	*	*
.	.	.	.	1G/	-nis	.	.	.	.
!	!	!	!	!	!	!LO:TX:t=P:problem=kreska pseudotaktowa	!	!LO:TX:t=P:problem=kreska pseudotaktowa	!
.	.	.	.	.	.	4e\	-nis	4g\	-nis
=26-	=26-	=26-	=26-	=26-	=26-	=26-	=26-	=26-	=26-
2r	.	1B	.	.	.	2d\	ob-	4g\	o-
.	.	.	.	.	.	.	.	4g\	-bru-
!LO:TX:t=P:problem=kreska pseudotaktowa	!	!	!	!	!	!	!	!LO:TX:t=P:problem=kreska pseudotaktowa	!
2G\	Dae-	.	.	2.G/	o-	4d\	-ru-	2g\	-at
.	.	.	.	.	.	4d\	-at	.	.
*	*	*Xlig	*	*	*	*	*	*	*
*	*	*lig	*	*	*	*	*ij	*	*
!	!	!	!	!	!	!LO:TX:t=P:problem=kreska pseudotaktowa	!	!	!
1D	-mo-	1A	-nis	.	.	1d	Dae-	2a\	o-
.	.	.	.	8F/L	.	.	.	.	.
.	.	.	.	8E/J	.	.	.	.	.
!	!	!	!	!LO:TX:t=P:problem=kreska pseudotaktowa	!	!	!	!	!
.	.	.	.	2F/	-bru-	.	.	2a\	-bru-
=27-	=27-	=27-	=27-	=27-	=27-	=27-	=27-	=27-	=27-
*	*	*custos:G	*	*	*	*	*	*	*
!	!	!LO:TX:t=P:problem=kreska pseudotaktowa	!	!	!	!	!	!	!
!	!	!	!	!LO:TX:t=P:problem=kreska pseudotaktowa	!	!	!	!LO:TX:t=P:problem=kreska pseudotaktowa	!
2G\	-nis	1G	.	1G	-at	2d\	-mo-	1b	-at
!LO:TX:t=P:problem=kreska pseudotaktowa	!	!	!	!	!	!LO:TX:t=P:problem=kreska pseudotaktowa	!	!	!
2C/	Dae-	.	.	.	.	2e\	-nis	.	.
*	*	*Xlig	*	*	*	*	*	*	*
!	!	!LO:LB:g=original	!	!	!	!	!	!	!
*	*	*xywh-#255:7808,3912,6293,1293	*	*	*	*	*	*	*
1D	-mo-	1F	o-	2rc	.	2d\	o-	2r	.
!	!	!	!	!LO:TX:t=P:problem=kreska pseudotaktowa	!	!	!	!LO:TX:t=P:problem=kreska pseudotaktowa	!
.	.	.	.	2d\	De-	2A/	-bru-	2fny\	De-
=28-	=28-	=28-	=28-	=28-	=28-	=28-	=28-	=28-	=28-
*custos:C	*	*	*	*	*	*	*	*	*
!LO:TX:t=P:problem=kreska pseudotaktowa	!	!	!	!	!	!	!	!	!
!	!	!	!	!	!	!LO:TX:t=P:problem=kreska pseudotaktowa	!	!	!
1E	-nis	1G	-bru-	2B\	-mer-	1G	-at	1.e	-mer-
*	*	*	*	*	*	*	*Xij	*	*
.	.	.	.	1c	-gat	.	.	.	.
!LO:LB:g=original	!	!LO:TX:t=P:problem=kreska pseudotaktowa	!	!	!	!	!	!	!
*xywh-#354:1722,3995,5959,1155	*	*	*	*	*	*	*	*	*
2C/	o-	1G	-at	.	.	2r	.	.	.
!LO:TX:t=P:problem=kreska pseudotaktowa	!	!	!	!LO:TX:t=P:problem=kreska pseudotaktowa	!	!LO:TX:t=P:problem=kreska pseudotaktowa	!	!LO:TX:t=P:problem=kreska pseudotaktowa	!
2BB/	-bru-	.	.	2d\	vel	2d\	De-	2d/	-gat
=29-	=29-	=29-	=29-	=29-	=29-	=29-	=29-	=29-	=29-
2C/	-at	1G	de-	2e\	in	2c/	-mer-	2e/	vel
!	!	!	!	!	!	!LO:TX:t=P:problem=kreska pseudotaktowa	!	!	!
2GG/	de-	.	.	2d\	in-	2B/	-gat	4g\	in
!	!	!	!	!	!	!	!	!LO:TX:t=P:problem=kreska pseudotaktowa	!
.	.	.	.	.	.	.	.	4fny\	.
!LO:TX:t=P:problem=kreska pseudotaktowa	!	!	!	!	!	!	!	!	!
1C	-mer-	1G	-mer-	2e\	-fe-	2c/	vel	4e/	.
.	.	.	.	.	.	.	.	4d/	.
!	!	!	!	!LO:TX:t=P:problem=kreska pseudotaktowa	!	!LO:TX:t=P:problem=kreska pseudotaktowa	!	!LO:TX:t=P:problem=kreska pseudotaktowa	!
.	.	.	.	2e\	-ros	2G/	in	2e/	in-
=30-	=30-	=30-	=30-	=30-	=30-	=30-	=30-	=30-	=30-
*	*	*lig	*	*	*	*	*	*	*
2F\	-gat	1F	-gat	2A/	de-	2A/	in-	2fny\	-fe-
*	*ij	*	*	*	*	*	*	*	*
!	!	!	!	!	!	!LO:TX:t=P:problem=kreska pseudotaktowa	!	!	!
2D/	de-	.	.	1d	-mer-	2A/	-fe-	1a	-ros
!	!	!LO:TX:t=P:problem=kreska pseudotaktowa	!	!	!	!	!	!	!
1AA	-mer-	1E	.	.	.	2A,</	-ros	.	.
!	!	!	!	!	!	!LO:TX:t=P:problem=kreska pseudotaktowa	!	!	!
.	.	.	.	2c#X\	.	2A/	de-	4a\	in
*	*	*	*	*	*	*	*	*custos:f	*
!	!	!	!	!	!	!	!	!LO:TX:t=P:problem=kreska pseudotaktowa	!
.	.	.	.	.	.	.	.	4g\	.
*	*	*Xlig	*	*	*	*	*	*	*
!	!	!	!	!	!	!	!	!LO:LB:g=original	!
=31-	=31-	=31-	=31-	=31-	=31-	=31-	=31-	=31-	=31-
*	*	*	*	*	*	*	*	*xywh-#51:1613,3923,6109,1077	*
!	!	!LO:TX:t=P:problem=kreska pseudotaktowa	!	!LO:TX:t=P:problem=kreska pseudotaktowa	!	!	!	!	!
2D,</	-gat	1D	vel	1d	-gat	2A/	-mer-	4fny\	.
*	*Xij	*	*	*	*	*	*	*	*
.	.	.	.	.	.	.	.	4e/	.
!LO:TX:t=P:problem=kreska pseudotaktowa	!	!	!	!	!	!LO:TX:t=P:problem=kreska pseudotaktowa	!	!LO:TX:t=P:problem=kreska pseudotaktowa	!
2D/	vel	.	.	.	.	2Fny/	-gat	2fny\	in-
*	*	*	*	*	*	*custos:c	*	*	*
!	!	!LO:TX:t=P:problem=kreska pseudotaktowa	!	!	!	!	!	!	!
2E\	in	1G	in	2rc	.	2G/	vel	2e/	-fe-
!	!	!	!	!	!	!LO:LB:g=original	!	!	!
*	*	*	*	*	*	*xywh-#51:7925,3870,6297,1251	*	*	*
2C/	in-	.	.	2e\	vel	4c/	in	2e/	-ros
!	!	!	!	!	!	!LO:TX:t=P:problem=kreska pseudotaktowa	!	!	!
.	.	.	.	.	.	4B/	.	.	.
=32-	=32-	=32-	=32-	=32-	=32-	=32-	=32-	=32-	=32-
!	!	!	!	!	!	!	!	!LO:TX:t=P:problem=kreska pseudotaktowa	!
1F	-fe-	1A	in-	1A	in	4A/	.	1fny	De-
.	.	.	.	.	.	4G/	.	.	.
!	!	!	!	!	!	!LO:TX:t=P:problem=kreska pseudotaktowa	!	!	!
.	.	.	.	.	.	2F#/	in-	.	.
*	*	*lig	*	*	*	*	*	*	*
2F\	-ros	1F	-fe-	2A/	in-	2c/	-fe-	2fny\	-mer-
!LO:TX:t=P:problem=kreska pseudotaktowa	!	!	!	!LO:TX:t=P:problem=kreska pseudotaktowa	!	!LO:TX:t=P:problem=kreska pseudotaktowa	!	!	!
2D/	vel	.	.	2A/	-fe-	2d\	-ros	2fny\	-gat
=33-	=33-	=33-	=33-	=33-	=33-	=33-	=33-	=33-	=33-
!	!	!	!	!LO:TX:t=P:problem=kreska pseudotaktowa	!	!	!	!	!
2E\	in	1G	.	1G	-ros	2B/	in	2e/	vel
!	!	!	!	!	!	!	!	!LO:TX:t=P:problem=kreska pseudotaktowa	!
2C/	in-	.	.	.	.	2c/	in-	2g\	in
*	*	*Xlig	*	*	*	*	*	*	*
4G\	-fe-	00G	-ros.	2r	.	2d\	-fe-	2g\	in-
4F\	.	.	.	.	.	.	.	.	.
!	!	!	!	!	!	!LO:TX:t=P:problem=kreska pseudotaktowa	!	!	!
4E\	.	.	.	2e\	vel	2G/	-ros	2g\	-fe-
!LO:TX:t=P:problem=kreska pseudotaktowa	!	!	!	!	!	!	!	!	!
4D\	.	.	.	.	.	.	.	.	.
=34-	=34-	=34-	=34-	=34-	=34-	=34-	=34-	=34-	=34-
2C/	.	.	.	2e\	in	2rB	.	4g\	-ros
.	.	.	.	.	.	.	.	4fny\	.
!	!	!	!	!LO:TX:t=P:problem=kreska pseudotaktowa	!	!LO:TX:t=P:problem=kreska pseudotaktowa	!	!	!
2BB/	.	.	.	2d\	in-	2G/	in	4e/	.
!	!	!	!	!	!	!	!	!LO:TX:t=P:problem=kreska pseudotaktowa	!
.	.	.	.	.	.	.	.	4d/	.
0C	.	.	.	0cny	-fe-	4E/	in-	2.e/	in-
.	.	.	.	.	.	4D/	.	.	.
.	.	.	.	.	.	4E/	.	.	.
!	!	!	!	!	!	!LO:TX:t=P:problem=kreska pseudotaktowa	!	!	!
.	.	.	.	.	.	4Fny/	.	4e/	-fe-
=35-	=35-	=35-	=35-	=35-	=35-	=35-	=35-	=35-	=35-
.	.	.	.	.	.	2.G/	-fe-	0d	-ros.
!	!	!	!	!	!	!LO:TX:t=P:problem=kreska pseudotaktowa	!	!	!
.	.	.	.	.	.	4G/	.	.	.
1GG	-ros.	1Gyy	.	1B	-ros.	1G	-ros.	.	.
=-	=-	=-	=-	=-	=-	=-	=-	=-	=-
*-	*-	*-	*-	*-	*-	*-	*-	*-	*-
!!!system-decoration: [(s1,s2,s3,s4,s5)]
!!!RDF**kern: > = above
!!!RDF**kern: < = below
!!!ENC: Berenika Jozajtis
!!!END: 2022-02-11
!!!EED: Antoni Szymański
!!!EEV: 2022-02-16
!!!ENC-iiif: Natalia Wrzos
!!!END-iiif: 2022-09-02
!!!YEC: Copyright 2022 Narodowy Instytut Fryderyka Chopina (https://polishscores.org)
!!!YEM: License CC-BY-4.0 (https://creativecommons.org/licenses/by/4.0)
